; generated by PrusaSlicer 2.0.0+win64 on 2019-10-21 at 08:45:06

; 

; external perimeters extrusion width = 0.45mm
; perimeters extrusion width = 0.45mm
; infill extrusion width = 0.45mm
; solid infill extrusion width = 0.45mm
; top infill extrusion width = 0.40mm
; support material extrusion width = 0.35mm
; first layer extrusion width = 0.42mm

M73 P0 R89
M73 Q0 S89
M201 X1000 Y1000 Z1000 E5000 ; sets maximum accelerations, mm/sec^2
M203 X200 Y200 Z12 E120 ; sets maximum feedrates, mm/sec
M204 P1250 R1250 T1250 ; sets acceleration (P, T) and retract acceleration (R), mm/sec^2
M205 X8.00 Y8.00 Z0.40 E1.50 ; sets the jerk limits, mm/sec
M205 S0 T0 ; sets the minimum extruding and travel feed rate, mm/sec
M107
M115 U3.7.1 ; tell printer latest fw version
G90 ; use absolute coordinates
M83 ; extruder relative mode
M104 S215 ; set extruder temp
M140 S60 ; set bed temp
M190 S60 ; wait for bed temp
M109 S215 ; wait for extruder temp
G28 W ; home all without mesh bed level
G80 ; mesh bed leveling
G1 Y-3.0 F1000.0 ; go outside print area
G92 E0.0
G1 X60.0 E9.0 F1000.0 ; intro line
M73 Q0 S89
M73 P0 R89
G1 X100.0 E12.5 F1000.0 ; intro line
G92 E0.0
M221 S95
M900 K30 ; Filament gcode
G21 ; set units to millimeters
G90 ; use absolute coordinates
M83 ; use relative distances for extrusion
;BEFORE_LAYER_CHANGE
G92 E0.0
;0.2


G1 E-0.80000 F2100.00000
G1 Z0.600 F10800.000
;AFTER_LAYER_CHANGE
;0.2
G1 X112.546 Y79.136
G1 Z0.200
G1 E0.80000 F2100.00000
M204 S1000
G1 F1200
G1 X113.277 Y79.007 E0.02326
G1 X136.666 Y79.007 E0.73335
G1 X137.170 Y79.066 E0.01589
G1 X137.650 Y79.241 E0.01601
G1 X138.073 Y79.519 E0.01589
G1 X138.421 Y79.888 E0.01589
G1 X145.338 Y90.312 E0.39225
G1 X145.638 Y91.033 E0.02451
G1 X145.688 Y118.515 E0.86166
G1 X145.631 Y119.000 E0.01532
G1 X145.467 Y119.460 E0.01532
G1 X145.204 Y119.873 E0.01532
G1 X138.327 Y128.328 E0.34173
G1 X137.846 Y128.746 E0.01998
G1 X137.264 Y129.007 E0.01998
G1 X136.673 Y129.090 E0.01873
G1 X113.276 Y129.090 E0.73357
G1 X112.791 Y129.033 E0.01532
G1 X112.327 Y128.869 E0.01544
G1 X111.610 Y128.307 E0.02855
G1 X104.793 Y119.870 E0.34012
G1 X104.517 Y119.427 E0.01635
G1 X104.355 Y118.935 E0.01623
G1 X104.312 Y91.485 E0.86067
G1 X104.369 Y91.000 E0.01532
G1 X104.533 Y90.540 E0.01532
G1 X111.497 Y79.938 E0.39771
G1 X111.958 Y79.457 E0.02089
G1 X112.494 Y79.165 E0.01912
G1 F8640
G1 X113.277 Y79.007 E-0.18451
G1 X115.769 Y79.007 E-0.57549
G1 E-0.04000 F2100.00000
G1 Z0.800 F10800.000
G1 X113.287 Y91.256
G1 Z0.200
G1 E0.80000 F2100.00000
G1 F1200
G1 X113.287 Y81.196 E0.31544
G1 X114.042 Y81.196 E0.02365
G1 X114.042 Y91.086 E0.31012
G1 X114.796 Y91.086 E0.02365
G1 X114.796 Y81.196 E0.31012
G1 X115.550 Y81.196 E0.02365
G1 X115.550 Y91.086 E0.31012
G1 X116.304 Y91.086 E0.02365
G1 X116.304 Y81.196 E0.31012
G1 X117.058 Y81.196 E0.02365
G1 X117.058 Y91.086 E0.31012
G1 X117.812 Y91.086 E0.02365
G1 X117.812 Y81.196 E0.31012
G1 X118.567 Y81.196 E0.02365
G1 X118.567 Y91.086 E0.31012
G1 X119.321 Y91.086 E0.02365
G1 X119.321 Y81.196 E0.31012
G1 X120.075 Y81.196 E0.02365
G1 X120.075 Y91.086 E0.31012
G1 X120.829 Y91.086 E0.02365
G1 X120.829 Y81.196 E0.31012
G1 X121.583 Y81.196 E0.02365
G1 X121.583 Y91.086 E0.31012
G1 X122.337 Y91.086 E0.02365
G1 X122.337 Y81.196 E0.31012
G1 X123.091 Y81.196 E0.02365
G1 X123.091 Y91.086 E0.31012
G1 X123.846 Y91.086 E0.02365
G1 X123.846 Y81.196 E0.31012
G1 X124.600 Y81.196 E0.02365
G1 X124.600 Y91.086 E0.31012
G1 X125.354 Y91.086 E0.02365
G1 X125.354 Y81.196 E0.31012
G1 X126.108 Y81.196 E0.02365
G1 X126.108 Y91.086 E0.31012
G1 X126.862 Y91.086 E0.02365
G1 X126.862 Y81.196 E0.31012
G1 X127.616 Y81.196 E0.02365
G1 X127.616 Y91.086 E0.31012
G1 X128.371 Y91.086 E0.02365
G1 X128.371 Y81.196 E0.31012
G1 X129.125 Y81.196 E0.02365
G1 X129.125 Y91.086 E0.31012
G1 X129.879 Y91.086 E0.02365
G1 X129.879 Y81.196 E0.31012
G1 X130.633 Y81.196 E0.02365
G1 X130.633 Y91.086 E0.31012
G1 X131.387 Y91.086 E0.02365
G1 X131.387 Y81.196 E0.31012
G1 X132.141 Y81.196 E0.02365
G1 X132.141 Y91.086 E0.31012
G1 X132.896 Y91.086 E0.02365
G1 X132.896 Y81.196 E0.31012
G1 X133.650 Y81.196 E0.02365
G1 X133.650 Y91.086 E0.31012
G1 X134.404 Y91.086 E0.02365
G1 X134.404 Y81.196 E0.31012
G1 X135.158 Y81.196 E0.02365
G1 X135.158 Y91.086 E0.31012
G1 X135.912 Y91.086 E0.02365
G1 X135.912 Y81.196 E0.31012
G1 X136.666 Y81.196 E0.02365
G1 X136.666 Y91.256 E0.31544
G1 F8640
G1 X136.666 Y87.965 E-0.76000
G1 E-0.04000 F2100.00000
G1 Z0.800 F10800.000
G1 X130.633 Y94.256
G1 Z0.200
G1 E0.80000 F2100.00000
G1 F1200
G1 X130.633 Y93.914 E0.01074
G1 X129.879 Y93.914 E0.02365
G1 X129.879 Y94.086 E0.00542
G1 X129.125 Y94.086 E0.02365
G1 X129.125 Y93.914 E0.00542
G1 X128.371 Y93.914 E0.02365
G1 X128.371 Y94.086 E0.00542
G1 X127.616 Y94.086 E0.02365
G1 X127.616 Y93.914 E0.00542
G1 X126.862 Y93.914 E0.02365
G1 X126.862 Y94.256 E0.01074
G1 F8640
G1 X126.862 Y93.914 E-0.07909
G1 X127.616 Y93.914 E-0.17414
G1 X127.616 Y94.086 E-0.03991
G1 X128.371 Y94.086 E-0.17414
G1 X128.371 Y93.914 E-0.03991
G1 X129.125 Y93.914 E-0.17414
G1 X129.125 Y94.086 E-0.03991
G1 X129.293 Y94.086 E-0.03879
G1 E-0.04000 F2100.00000
G1 Z0.800 F10800.000
G1 X123.091 Y94.256
G1 Z0.200
G1 E0.80000 F2100.00000
G1 F1200
G1 X123.091 Y93.914 E0.01074
G1 X122.337 Y93.914 E0.02365
G1 X122.337 Y94.086 E0.00542
G1 X121.583 Y94.086 E0.02365
G1 X121.583 Y93.914 E0.00542
G1 X120.829 Y93.914 E0.02365
G1 X120.829 Y94.086 E0.00542
G1 X120.075 Y94.086 E0.02365
G1 X120.075 Y93.914 E0.00542
G1 X119.321 Y93.914 E0.02365
G1 X119.321 Y94.256 E0.01074
G1 F8640
G1 X119.321 Y93.914 E-0.07909
G1 X120.075 Y93.914 E-0.17414
G1 X120.075 Y94.086 E-0.03991
G1 X120.829 Y94.086 E-0.17414
G1 X120.829 Y93.914 E-0.03991
G1 X121.583 Y93.914 E-0.17414
G1 X121.583 Y94.086 E-0.03991
G1 X121.751 Y94.086 E-0.03879
G1 E-0.04000 F2100.00000
G1 Z0.800 F10800.000
G1 X113.287 Y126.902
G1 Z0.200
G1 E0.80000 F2100.00000
G1 F1200
G1 X113.287 Y118.914 E0.25047
G1 X114.042 Y118.914 E0.02365
G1 X114.042 Y126.732 E0.24515
G1 X114.796 Y126.732 E0.02365
G1 X114.796 Y118.914 E0.24515
G1 X115.550 Y118.914 E0.02365
G1 X115.550 Y126.732 E0.24515
G1 X116.304 Y126.732 E0.02365
G1 X116.304 Y118.914 E0.24515
G1 X117.058 Y118.914 E0.02365
G1 X117.058 Y126.732 E0.24515
G1 X117.812 Y126.732 E0.02365
G1 X117.812 Y118.914 E0.24515
G1 X118.567 Y118.914 E0.02365
G1 X118.567 Y126.732 E0.24515
G1 X119.321 Y126.732 E0.02365
G1 X119.321 Y118.914 E0.24515
G1 X119.671 Y118.914 E0.01099
G1 X119.914 Y118.671 E0.01074
G1 X119.914 Y116.329 E0.07345
G1 X119.671 Y116.086 E0.01074
G1 X119.321 Y116.086 E0.01099
G1 X119.321 Y111.467 E0.14485
G1 X120.075 Y111.467 E0.02365
G1 X120.075 Y126.732 E0.47864
G1 X120.829 Y126.732 E0.02365
G1 X120.829 Y111.467 E0.47864
G1 X121.583 Y111.467 E0.02365
G1 X121.583 Y126.732 E0.47864
G1 X122.337 Y126.732 E0.02365
G1 X122.337 Y111.467 E0.47864
G1 X123.091 Y111.467 E0.02365
G1 X123.091 Y126.732 E0.47864
G1 X123.846 Y126.732 E0.02365
G1 X123.846 Y111.467 E0.47864
G1 X124.600 Y111.467 E0.02365
G1 X124.600 Y126.732 E0.47864
G1 X125.354 Y126.732 E0.02365
G1 X125.354 Y111.467 E0.47864
G1 X126.108 Y111.467 E0.02365
G1 X126.108 Y126.732 E0.47864
G1 X126.862 Y126.732 E0.02365
G1 X126.862 Y111.467 E0.47864
G1 X127.616 Y111.467 E0.02365
G1 X127.616 Y126.732 E0.47864
G1 X128.371 Y126.732 E0.02365
G1 X128.371 Y111.467 E0.47864
G1 X129.125 Y111.467 E0.02365
G1 X129.125 Y126.732 E0.47864
G1 X129.879 Y126.732 E0.02365
G1 X129.879 Y111.467 E0.47864
G1 X130.633 Y111.467 E0.02365
G1 X130.633 Y116.086 E0.14485
G1 X130.329 Y116.086 E0.00954
G1 X130.086 Y116.329 E0.01074
G1 X130.086 Y118.671 E0.07345
G1 X130.329 Y118.914 E0.01074
G1 X130.633 Y118.914 E0.00954
G1 X130.633 Y126.732 E0.24515
G1 X131.387 Y126.732 E0.02365
G1 X131.387 Y118.914 E0.24515
G1 X132.141 Y118.914 E0.02365
G1 X132.141 Y126.732 E0.24515
G1 X132.896 Y126.732 E0.02365
G1 X132.896 Y118.914 E0.24515
G1 X133.650 Y118.914 E0.02365
G1 X133.650 Y126.732 E0.24515
G1 X134.404 Y126.732 E0.02365
G1 X134.404 Y118.914 E0.24515
G1 X135.158 Y118.914 E0.02365
G1 X135.158 Y126.732 E0.24515
G1 X135.912 Y126.732 E0.02365
G1 X135.912 Y118.914 E0.24515
G1 X136.666 Y118.914 E0.02365
G1 X136.666 Y126.902 E0.25047
G1 F8640
G1 X136.666 Y123.611 E-0.76000
G1 E-0.04000 F2100.00000
G1 Z0.800 F10800.000
G1 X132.087 Y117.087
G1 Z0.200
G1 E0.80000 F2100.00000
G1 F1200
G1 X132.087 Y92.913 E0.75796
G1 X117.913 Y92.913 E0.44442
G1 X117.913 Y117.087 E0.75796
G1 X118.913 Y117.087 E0.03135
G1 X118.913 Y117.913 E0.02589
G1 X107.087 Y117.913 E0.37079
G1 X107.087 Y92.087 E0.80975
G1 X142.913 Y92.087 E1.12329
G1 X142.913 Y117.913 E0.80975
M73 Q1 S88
M73 P1 R88
G1 X131.087 Y117.913 E0.37079
G1 X131.087 Y117.087 E0.02589
G1 X132.027 Y117.087 E0.02947
G1 X131.710 Y116.710 F10800.000
G1 F1200
G1 X131.710 Y93.290 E0.73432
G1 X118.290 Y93.290 E0.42077
G1 X118.290 Y116.710 E0.73432
G1 X119.290 Y116.710 E0.03135
G1 X119.290 Y118.290 E0.04954
G1 X106.710 Y118.290 E0.39444
G1 X106.710 Y91.710 E0.83340
G1 X143.290 Y91.710 E1.14694
G1 X143.290 Y118.290 E0.83340
G1 X130.710 Y118.290 E0.39444
G1 X130.710 Y116.710 E0.04954
G1 X131.650 Y116.710 E0.02947
G1 X132.088 Y116.578 F10800.000
G1 F8640
G1 X131.658 Y113.419 E-0.76000
G1 E-0.04000 F2100.00000
G1 Z0.800 F10800.000
G1 X131.619 Y117.800
G1 Z0.200
G1 E0.80000 F2100.00000
G1 F1200
G1 X131.370 Y117.551 E0.01112
G1 X131.370 Y117.370 E0.00573
G1 X131.726 Y117.370 E0.01126
G1 X131.986 Y117.630 E0.01163
G1 X132.524 Y117.630 E0.01699
G1 X132.264 Y117.370 E0.01163
G1 X132.370 Y117.370 E0.00336
G1 X132.370 Y116.939 E0.01363
G1 X133.061 Y117.630 E0.03091
G1 X133.599 Y117.630 E0.01699
G1 X132.370 Y116.401 E0.05493
G1 X132.370 Y115.864 E0.01699
G1 X134.136 Y117.630 E0.07895
G1 X134.674 Y117.630 E0.01699
G1 X132.370 Y115.326 E0.10297
G1 X132.370 Y114.789 E0.01699
G1 X135.211 Y117.630 E0.12700
G1 X135.749 Y117.630 E0.01699
G1 X132.370 Y114.251 E0.15102
G1 X132.370 Y113.714 E0.01699
G1 X136.286 Y117.630 E0.17504
G1 X136.824 Y117.630 E0.01699
G1 X132.370 Y113.176 E0.19906
G1 X132.370 Y112.639 E0.01699
G1 X137.361 Y117.630 E0.22309
G1 X137.899 Y117.630 E0.01699
G1 X132.370 Y112.101 E0.24711
G1 X132.370 Y111.564 E0.01699
G1 X138.436 Y117.630 E0.27113
G1 X138.974 Y117.630 E0.01699
G1 X132.370 Y111.026 E0.29515
G1 X132.370 Y110.489 E0.01699
G1 X139.511 Y117.630 E0.31918
G1 X140.049 Y117.630 E0.01699
G1 X132.370 Y109.951 E0.34320
G1 X132.370 Y109.414 E0.01699
G1 X140.586 Y117.630 E0.36722
G1 X141.124 Y117.630 E0.01699
G1 X132.370 Y108.876 E0.39124
G1 X132.370 Y108.339 E0.01699
G1 X141.661 Y117.630 E0.41526
G1 X142.199 Y117.630 E0.01699
G1 X132.370 Y107.801 E0.43929
G1 X132.370 Y107.264 E0.01699
G1 X142.630 Y117.524 E0.45856
G1 X142.630 Y116.986 E0.01699
G1 X132.370 Y106.726 E0.45856
G1 X132.370 Y106.189 E0.01699
G1 X142.630 Y116.449 E0.45856
G1 X142.630 Y115.911 E0.01699
G1 X132.370 Y105.651 E0.45856
G1 X132.370 Y105.114 E0.01699
G1 X142.630 Y115.374 E0.45856
G1 X142.630 Y114.836 E0.01699
G1 X132.370 Y104.576 E0.45856
G1 X132.370 Y104.039 E0.01699
G1 X142.630 Y114.299 E0.45856
G1 X142.630 Y113.761 E0.01699
G1 X132.370 Y103.501 E0.45856
G1 X132.370 Y102.964 E0.01699
G1 X142.630 Y113.224 E0.45856
G1 X142.630 Y112.686 E0.01699
G1 X132.370 Y102.426 E0.45856
G1 X132.370 Y101.889 E0.01699
G1 X142.630 Y112.149 E0.45856
G1 X142.630 Y111.611 E0.01699
G1 X132.370 Y101.351 E0.45856
G1 X132.370 Y100.814 E0.01699
G1 X142.630 Y111.074 E0.45856
G1 X142.630 Y110.536 E0.01699
G1 X132.370 Y100.276 E0.45856
G1 X132.370 Y99.739 E0.01699
G1 X142.630 Y109.999 E0.45856
G1 X142.630 Y109.461 E0.01699
G1 X132.370 Y99.201 E0.45856
G1 X132.370 Y98.664 E0.01699
G1 X142.630 Y108.924 E0.45856
G1 X142.630 Y108.386 E0.01699
G1 X132.370 Y98.126 E0.45856
G1 X132.370 Y97.589 E0.01699
G1 X142.630 Y107.849 E0.45856
G1 X142.630 Y107.311 E0.01699
G1 X132.370 Y97.051 E0.45856
G1 X132.370 Y96.514 E0.01699
G1 X142.630 Y106.774 E0.45856
G1 X142.630 Y106.237 E0.01699
G1 X132.370 Y95.976 E0.45856
G1 X132.370 Y95.439 E0.01699
G1 X142.630 Y105.699 E0.45856
G1 X142.630 Y105.162 E0.01699
G1 X132.370 Y94.901 E0.45856
G1 X132.370 Y94.364 E0.01699
G1 X142.630 Y104.624 E0.45856
G1 X142.630 Y104.087 E0.01699
G1 X132.370 Y93.826 E0.45856
G1 X132.370 Y93.289 E0.01699
G1 X142.630 Y103.549 E0.45856
G1 X142.630 Y103.012 E0.01699
G1 X131.988 Y92.370 E0.47561
G1 X132.526 Y92.370 E0.01699
G1 X142.630 Y102.474 E0.45159
G1 X142.630 Y101.937 E0.01699
G1 X133.063 Y92.370 E0.42756
G1 X133.601 Y92.370 E0.01699
G1 X142.630 Y101.399 E0.40354
G1 X142.630 Y100.862 E0.01699
G1 X134.138 Y92.370 E0.37952
G1 X134.676 Y92.370 E0.01699
G1 X142.630 Y100.324 E0.35550
G1 X142.630 Y99.787 E0.01699
G1 X135.213 Y92.370 E0.33147
G1 X135.751 Y92.370 E0.01699
G1 X142.630 Y99.249 E0.30745
G1 X142.630 Y98.712 E0.01699
G1 X136.288 Y92.370 E0.28343
G1 X136.826 Y92.370 E0.01699
G1 X142.630 Y98.174 E0.25941
G1 X142.630 Y97.637 E0.01699
G1 X137.363 Y92.370 E0.23538
G1 X137.901 Y92.370 E0.01699
G1 X142.630 Y97.099 E0.21136
G1 X142.630 Y96.562 E0.01699
G1 X138.438 Y92.370 E0.18734
G1 X138.976 Y92.370 E0.01699
G1 X142.630 Y96.024 E0.16332
G1 X142.630 Y95.487 E0.01699
G1 X139.513 Y92.370 E0.13930
G1 X140.051 Y92.370 E0.01699
G1 X142.630 Y94.949 E0.11527
G1 X142.630 Y94.412 E0.01699
G1 X140.588 Y92.370 E0.09125
G1 X141.126 Y92.370 E0.01699
G1 X142.630 Y93.874 E0.06723
G1 X142.630 Y93.337 E0.01699
G1 X141.663 Y92.370 E0.04321
G1 X142.201 Y92.370 E0.01699
G1 X142.800 Y92.969 E0.02677
G1 F8640
G1 X142.201 Y92.370 E-0.19558
G1 X141.663 Y92.370 E-0.12411
G1 X142.630 Y93.337 E-0.31568
G1 X142.630 Y93.874 E-0.12411
G1 X142.629 Y93.872 E-0.00052
G1 E-0.04000 F2100.00000
G1 Z0.800 F10800.000
G1 X131.881 Y92.800
G1 Z0.200
G1 E0.80000 F2100.00000
G1 F1200
G1 X131.451 Y92.370 E0.01922
G1 X130.913 Y92.370 E0.01699
G1 X131.174 Y92.630 E0.01163
G1 X130.636 Y92.630 E0.01699
G1 X130.376 Y92.370 E0.01163
G1 X129.838 Y92.370 E0.01699
G1 X130.099 Y92.630 E0.01163
G1 X129.561 Y92.630 E0.01699
G1 X129.301 Y92.370 E0.01163
G1 X128.763 Y92.370 E0.01699
G1 X129.024 Y92.630 E0.01163
G1 X128.486 Y92.630 E0.01699
G1 X128.226 Y92.370 E0.01163
G1 X127.689 Y92.370 E0.01699
G1 X127.949 Y92.630 E0.01163
G1 X127.411 Y92.630 E0.01699
G1 X127.151 Y92.370 E0.01163
G1 X126.614 Y92.370 E0.01699
G1 X126.874 Y92.630 E0.01163
G1 X126.336 Y92.630 E0.01699
G1 X126.076 Y92.370 E0.01163
G1 X125.539 Y92.370 E0.01699
G1 X125.799 Y92.630 E0.01163
G1 X125.261 Y92.630 E0.01699
G1 X125.001 Y92.370 E0.01163
G1 X124.464 Y92.370 E0.01699
G1 X124.724 Y92.630 E0.01163
G1 X124.186 Y92.630 E0.01699
G1 X123.926 Y92.370 E0.01163
G1 X123.389 Y92.370 E0.01699
G1 X123.649 Y92.630 E0.01163
G1 X123.111 Y92.630 E0.01699
G1 X122.851 Y92.370 E0.01163
G1 X122.314 Y92.370 E0.01699
G1 X122.574 Y92.630 E0.01163
G1 X122.036 Y92.630 E0.01699
G1 X121.776 Y92.370 E0.01163
G1 X121.239 Y92.370 E0.01699
G1 X121.499 Y92.630 E0.01163
G1 X120.961 Y92.630 E0.01699
G1 X120.701 Y92.370 E0.01163
G1 X120.164 Y92.370 E0.01699
G1 X120.424 Y92.630 E0.01163
G1 X119.886 Y92.630 E0.01699
G1 X119.626 Y92.370 E0.01163
G1 X119.089 Y92.370 E0.01699
G1 X119.349 Y92.630 E0.01163
G1 X118.811 Y92.630 E0.01699
G1 X118.551 Y92.370 E0.01163
G1 X118.014 Y92.370 E0.01699
G1 X118.274 Y92.630 E0.01163
G1 X117.736 Y92.630 E0.01699
G1 X117.476 Y92.370 E0.01163
G1 X116.939 Y92.370 E0.01699
G1 X117.630 Y93.061 E0.03091
G1 X117.630 Y93.599 E0.01699
G1 X116.401 Y92.370 E0.05493
G1 X115.864 Y92.370 E0.01699
G1 X117.630 Y94.136 E0.07895
G1 X117.630 Y94.674 E0.01699
G1 X115.326 Y92.370 E0.10297
G1 X114.789 Y92.370 E0.01699
G1 X117.630 Y95.211 E0.12700
G1 X117.630 Y95.749 E0.01699
G1 X114.251 Y92.370 E0.15102
G1 X113.714 Y92.370 E0.01699
G1 X117.630 Y96.286 E0.17504
G1 X117.630 Y96.824 E0.01699
G1 X113.176 Y92.370 E0.19906
G1 X112.639 Y92.370 E0.01699
G1 X117.630 Y97.361 E0.22309
G1 X117.630 Y97.899 E0.01699
G1 X112.101 Y92.370 E0.24711
G1 X111.564 Y92.370 E0.01699
G1 X117.630 Y98.436 E0.27113
G1 X117.630 Y98.974 E0.01699
G1 X111.026 Y92.370 E0.29515
G1 X110.489 Y92.370 E0.01699
G1 X117.630 Y99.511 E0.31917
G1 X117.630 Y100.049 E0.01699
G1 X109.951 Y92.370 E0.34320
G1 X109.414 Y92.370 E0.01699
G1 X117.630 Y100.586 E0.36722
G1 X117.630 Y101.124 E0.01699
