; generated by PrusaSlicer 2.0.0+win64 on 2019-10-16 at 08:07:55

; 

; external perimeters extrusion width = 0.45mm
; perimeters extrusion width = 0.45mm
; infill extrusion width = 0.45mm
; solid infill extrusion width = 0.45mm
; top infill extrusion width = 0.40mm
; first layer extrusion width = 0.42mm

M73 P0 R70
M73 Q0 S71
M201 X1000 Y1000 Z1000 E5000 ; sets maximum accelerations, mm/sec^2
M203 X200 Y200 Z12 E120 ; sets maximum feedrates, mm/sec
M204 P1250 R1250 T1250 ; sets acceleration (P, T) and retract acceleration (R), mm/sec^2
M205 X8.00 Y8.00 Z0.40 E1.50 ; sets the jerk limits, mm/sec
M205 S0 T0 ; sets the minimum extruding and travel feed rate, mm/sec
M107
M115 U3.7.1 ; tell printer latest fw version
G90 ; use absolute coordinates
M83 ; extruder relative mode
M104 S215 ; set extruder temp
M140 S60 ; set bed temp
M190 S60 ; wait for bed temp
M109 S215 ; wait for extruder temp
G28 W ; home all without mesh bed level
G80 ; mesh bed leveling
G1 Y-3.0 F1000.0 ; go outside print area
G92 E0.0
G1 X60.0 E9.0 F1000.0 ; intro line
M73 Q0 S71
M73 P0 R70
G1 X100.0 E12.5 F1000.0 ; intro line
G92 E0.0
M221 S95
M900 K30 ; Filament gcode
G21 ; set units to millimeters
G90 ; use absolute coordinates
M83 ; use relative distances for extrusion
;BEFORE_LAYER_CHANGE
G92 E0.0
;0.2


G1 E-0.80000 F2100.00000
G1 Z0.600 F10800.000
;AFTER_LAYER_CHANGE
;0.2
G1 X118.703 Y82.688
G1 Z0.200
G1 E0.80000 F2100.00000
M204 S1000
G1 F1200
G1 X118.997 Y82.143 E0.01942
G1 X119.432 Y81.702 E0.01942
G1 X119.973 Y81.400 E0.01942
G1 X120.573 Y81.262 E0.01930
G1 X135.761 Y81.255 E0.47622
G1 X156.462 Y81.482 E0.64912
G1 X157.041 Y81.600 E0.01851
G1 X157.564 Y81.866 E0.01839
G1 X157.997 Y82.261 E0.01839
G1 X158.311 Y82.761 E0.01851
G1 X158.507 Y83.654 E0.02867
G1 X158.506 Y126.717 E1.35020
G1 X158.406 Y127.321 E0.01919
G1 X158.143 Y127.873 E0.01919
G1 X157.738 Y128.331 E0.01919
G1 X157.221 Y128.659 E0.01919
G1 X156.346 Y128.854 E0.02810
G1 X141.318 Y128.854 E0.47119
G1 X120.683 Y128.630 E0.64705
G1 X120.087 Y128.526 E0.01896
G1 X119.542 Y128.263 E0.01896
G1 X119.088 Y127.859 E0.01908
G1 X118.765 Y127.348 E0.01896
G1 X118.569 Y126.447 E0.02889
G1 X118.569 Y83.436 E1.34859
G1 X118.693 Y82.747 E0.02195
G1 F8640
G1 X118.997 Y82.143 E-0.15621
G1 X119.432 Y81.702 E-0.14298
G1 X119.973 Y81.400 E-0.14298
G1 X120.573 Y81.262 E-0.14215
G1 X121.333 Y81.262 E-0.17568
G1 E-0.04000 F2100.00000
G1 Z0.800 F10800.000
G1 X131.497 Y123.718
G1 Z0.200
G1 E0.80000 F2100.00000
G1 F1200
G1 X131.753 Y123.690 E0.00805
G1 X131.970 Y123.709 E0.00683
G1 X132.221 Y123.782 E0.00820
G1 X132.450 Y123.908 E0.00820
G1 X132.615 Y124.046 E0.00676
G1 X132.776 Y124.246 E0.00805
G1 X132.877 Y124.440 E0.00683
G1 X132.950 Y124.689 E0.00813
G1 X132.968 Y124.901 E0.00669
G1 X132.950 Y125.114 E0.00669
G1 X132.876 Y125.365 E0.00820
G1 X132.751 Y125.594 E0.00820
G1 X132.612 Y125.759 E0.00676
G1 X132.412 Y125.920 E0.00805
G1 X132.219 Y126.021 E0.00683
G1 X131.970 Y126.093 E0.00813
G1 X131.757 Y126.112 E0.00669
G1 X131.545 Y126.093 E0.00669
G1 X131.296 Y126.021 E0.00812
G1 X131.105 Y125.921 E0.00676
G1 X130.903 Y125.759 E0.00812
G1 X130.764 Y125.594 E0.00676
G1 X130.638 Y125.365 E0.00820
G1 X130.565 Y125.114 E0.00820
G1 X130.547 Y124.901 E0.00669
G1 X130.565 Y124.689 E0.00669
G1 X130.638 Y124.440 E0.00812
G1 X130.737 Y124.248 E0.00676
G1 X130.899 Y124.046 E0.00812
G1 X131.065 Y123.908 E0.00676
G1 X131.292 Y123.783 E0.00812
G1 X131.440 Y123.736 E0.00488
G1 X131.576 Y123.474 F10800.000
G1 F8640
G1 X131.753 Y123.690 E-0.07293
G1 X131.970 Y123.709 E-0.05032
G1 X132.221 Y123.782 E-0.06039
G1 X132.450 Y123.908 E-0.06036
G1 X132.615 Y124.046 E-0.04978
G1 X132.776 Y124.246 E-0.05929
G1 X132.877 Y124.440 E-0.05032
G1 X132.950 Y124.689 E-0.05986
G1 X132.968 Y124.901 E-0.04927
G1 X132.950 Y125.114 E-0.04927
G1 X132.876 Y125.365 E-0.06036
G1 X132.751 Y125.594 E-0.06036
G1 X132.612 Y125.759 E-0.04978
G1 X132.519 Y125.834 E-0.02770
G1 E-0.04000 F2100.00000
G1 Z0.800 F10800.000
G1 X131.757 Y88.717
G1 Z0.200
G1 E0.80000 F2100.00000
G1 F1200
G1 X131.475 Y88.692 E0.00889
G1 X131.155 Y88.599 E0.01045
G1 X130.898 Y88.465 E0.00909
G1 X130.638 Y88.256 E0.01045
G1 X130.451 Y88.034 E0.00909
G1 X130.288 Y87.736 E0.01066
G1 X130.193 Y87.410 E0.01066
G1 X130.168 Y87.127 E0.00889
G1 X130.193 Y86.845 E0.00889
G1 X130.288 Y86.519 E0.01066
G1 X130.451 Y86.221 E0.01066
G1 X130.638 Y85.999 E0.00908
G1 X130.895 Y85.791 E0.01037
G1 X131.149 Y85.659 E0.00896
G1 X131.419 Y85.574 E0.00889
G1 X131.748 Y85.538 E0.01037
G1 X132.039 Y85.563 E0.00917
G1 X132.360 Y85.656 E0.01047
G1 X132.617 Y85.790 E0.00909
G1 X132.877 Y85.999 E0.01045
G1 X133.063 Y86.221 E0.00909
G1 X133.227 Y86.519 E0.01066
G1 X133.322 Y86.845 E0.01066
G1 X133.347 Y87.127 E0.00889
G1 X133.322 Y87.410 E0.00889
G1 X133.227 Y87.736 E0.01066
G1 X133.063 Y88.034 E0.01066
G1 X132.877 Y88.256 E0.00908
G1 X132.619 Y88.463 E0.01037
G1 X132.360 Y88.599 E0.00917
G1 X132.040 Y88.692 E0.01047
G1 X131.817 Y88.711 E0.00701
G1 X131.784 Y88.336 F10800.000
G1 F1200
G1 X131.545 Y88.320 E0.00753
G1 X131.296 Y88.247 E0.00812
G1 X131.105 Y88.147 E0.00676
G1 X130.903 Y87.985 E0.00812
G1 X130.764 Y87.820 E0.00676
G1 X130.638 Y87.591 E0.00820
G1 X130.565 Y87.340 E0.00820
G1 X130.547 Y87.127 E0.00669
G1 X130.565 Y86.915 E0.00669
G1 X130.638 Y86.664 E0.00820
G1 X130.764 Y86.435 E0.00820
G1 X130.903 Y86.269 E0.00676
G1 X131.103 Y86.109 E0.00805
G1 X131.294 Y86.009 E0.00676
G1 X131.497 Y85.945 E0.00669
G1 X131.753 Y85.916 E0.00805
G1 X131.970 Y85.935 E0.00683
G1 X132.219 Y86.008 E0.00813
G1 X132.410 Y86.107 E0.00676
G1 X132.612 Y86.269 E0.00812
G1 X132.751 Y86.435 E0.00676
G1 X132.876 Y86.664 E0.00820
G1 X132.950 Y86.915 E0.00820
G1 X132.968 Y87.127 E0.00669
G1 X132.950 Y87.340 E0.00669
G1 X132.876 Y87.591 E0.00820
G1 X132.751 Y87.820 E0.00820
G1 X132.612 Y87.985 E0.00676
G1 X132.412 Y88.146 E0.00805
G1 X132.219 Y88.247 E0.00683
G1 X131.970 Y88.320 E0.00813
G1 X131.844 Y88.331 E0.00396
G1 X131.669 Y88.546 F10800.000
G1 F8640
G1 X131.545 Y88.320 E-0.06914
G1 X131.296 Y88.247 E-0.05983
G1 X131.105 Y88.147 E-0.04980
G1 X130.903 Y87.985 E-0.05983
G1 X130.764 Y87.820 E-0.04980
G1 X130.638 Y87.591 E-0.06036
G1 X130.565 Y87.340 E-0.06036
G1 X130.547 Y87.127 E-0.04927
G1 X130.565 Y86.915 E-0.04927
G1 X130.638 Y86.664 E-0.06036
G1 X130.764 Y86.435 E-0.06036
G1 X130.903 Y86.269 E-0.04978
G1 X131.103 Y86.109 E-0.05929
G1 X131.189 Y86.063 E-0.02255
G1 E-0.04000 F2100.00000
G1 Z0.800 F10800.000
G1 X134.344 Y117.530
G1 Z0.200
G1 E0.80000 F2100.00000
G1 F1200
G1 X134.344 Y92.356 E0.78932
G1 X121.344 Y92.356 E0.40761
G1 X121.344 Y84.030 E0.26105
G1 X135.170 Y84.030 E0.43350
G1 X135.170 Y125.856 E1.31142
G1 X133.023 Y125.856 E0.06733
G1 X133.227 Y125.510 E0.01260
G1 X133.322 Y125.184 E0.01066
G1 X133.347 Y124.901 E0.00889
G1 X133.322 Y124.619 E0.00889
G1 X133.229 Y124.298 E0.01047
G1 X133.093 Y124.039 E0.00917
G1 X132.886 Y123.781 E0.01037
G1 X132.664 Y123.595 E0.00908
G1 X132.366 Y123.432 E0.01066
G1 X132.039 Y123.336 E0.01067
G1 X131.748 Y123.311 E0.00917
G1 X131.419 Y123.348 E0.01037
G1 X131.143 Y123.435 E0.00908
G1 X130.851 Y123.595 E0.01045
G1 X130.629 Y123.781 E0.00909
G1 X130.420 Y124.041 E0.01045
G1 X130.286 Y124.299 E0.00909
G1 X130.193 Y124.619 E0.01045
G1 X130.168 Y124.901 E0.00889
G1 X130.193 Y125.184 E0.00889
G1 X130.288 Y125.510 E0.01066
G1 X130.492 Y125.856 E0.01260
G1 X121.344 Y125.856 E0.28681
G1 X121.344 Y117.530 E0.26105
G1 X134.284 Y117.530 E0.40572
G1 X133.967 Y117.153 F10800.000
G1 F1200
G1 X133.967 Y92.733 E0.76567
G1 X120.967 Y92.733 E0.40761
G1 X120.967 Y83.653 E0.28470
G1 X135.547 Y83.653 E0.45715
G1 X135.547 Y126.233 E1.33507
G1 X120.967 Y126.233 E0.45715
G1 X120.967 Y117.153 E0.28470
G1 X133.907 Y117.153 E0.40572
G1 X134.359 Y117.072 F10800.000
G1 F8640
G1 X133.915 Y113.862 E-0.76000
G1 E-0.04000 F2100.00000
G1 Z0.800 F10800.000
G1 X132.048 Y123.224
G1 Z0.200
G1 E0.80000 F2100.00000
G1 F1200
G1 X126.638 Y117.813 E0.24144
G1 X126.101 Y117.813 E0.01693
G1 X131.358 Y123.070 E0.23459
G1 X130.963 Y123.211 E0.01326
G1 X125.564 Y117.813 E0.24088
G1 X125.028 Y117.813 E0.01693
G1 X130.628 Y123.413 E0.24989
G1 X130.426 Y123.583 E0.00833
G1 X130.352 Y123.674 E0.00370
G1 X124.491 Y117.813 E0.26154
G1 X123.954 Y117.813 E0.01693
G1 X130.129 Y123.988 E0.27553
G1 X130.022 Y124.193 E0.00730
G1 X129.972 Y124.367 E0.00572
G1 X123.418 Y117.813 E0.29245
G1 X122.881 Y117.813 E0.01693
G1 X129.891 Y124.823 E0.31280
G1 X129.914 Y125.236 E0.01305
G1 X129.974 Y125.442 E0.00677
G1 X122.345 Y117.813 E0.34043
G1 X121.808 Y117.813 E0.01693
G1 X129.568 Y125.573 E0.34628
G1 X129.032 Y125.573 E0.01693
G1 X121.627 Y118.169 E0.33039
G1 X121.627 Y118.706 E0.01693
G1 X128.495 Y125.573 E0.30645
G1 X127.958 Y125.573 E0.01693
G1 X121.627 Y119.242 E0.28250
G1 X121.627 Y119.779 E0.01693
G1 X127.422 Y125.573 E0.25856
G1 X126.885 Y125.573 E0.01693
G1 X121.627 Y120.316 E0.23461
G1 X121.627 Y120.852 E0.01693
G1 X126.348 Y125.573 E0.21066
G1 X125.812 Y125.573 E0.01693
G1 X121.627 Y121.389 E0.18672
G1 X121.627 Y121.926 E0.01693
G1 X125.275 Y125.573 E0.16277
G1 X124.738 Y125.573 E0.01693
G1 X121.627 Y122.462 E0.13882
G1 X121.627 Y122.999 E0.01693
G1 X124.202 Y125.573 E0.11488
G1 X123.665 Y125.573 E0.01693
G1 X121.627 Y123.535 E0.09093
G1 X121.627 Y124.072 E0.01693
G1 X123.128 Y125.573 E0.06698
G1 X122.592 Y125.573 E0.01693
G1 X121.627 Y124.609 E0.04304
G1 X121.627 Y125.145 E0.01693
G1 X122.225 Y125.743 E0.02666
G1 F8640
G1 X121.627 Y125.145 E-0.19512
G1 X121.627 Y124.609 E-0.12391
G1 X122.592 Y125.573 E-0.31495
G1 X123.128 Y125.573 E-0.12391
G1 X123.122 Y125.567 E-0.00211
G1 E-0.04000 F2100.00000
G1 Z0.800 F10800.000
G1 X134.031 Y125.743
G1 Z0.200
G1 E0.80000 F2100.00000
G1 F1200
G1 X133.584 Y125.296 E0.01995
G1 X133.631 Y124.901 E0.01254
G1 X133.621 Y124.797 E0.00331
G1 X134.398 Y125.573 E0.03465
G1 X134.888 Y125.573 E0.01545
G1 X134.888 Y125.526 E0.00149
G1 X127.174 Y117.813 E0.34418
G1 X127.711 Y117.813 E0.01693
G1 X134.888 Y124.990 E0.32023
G1 X134.888 Y124.453 E0.01693
G1 X128.248 Y117.813 E0.29629
G1 X128.784 Y117.813 E0.01693
G1 X134.888 Y123.916 E0.27234
G1 X134.888 Y123.380 E0.01693
G1 X129.321 Y117.813 E0.24839
G1 X129.858 Y117.813 E0.01693
G1 X134.888 Y122.843 E0.22445
G1 X134.888 Y122.306 E0.01693
G1 X130.394 Y117.813 E0.20050
G1 X130.931 Y117.813 E0.01693
G1 X134.888 Y121.770 E0.17655
G1 X134.888 Y121.233 E0.01693
G1 X131.468 Y117.813 E0.15261
G1 X132.004 Y117.813 E0.01693
G1 X134.888 Y120.696 E0.12866
G1 X134.888 Y120.160 E0.01693
G1 X132.541 Y117.813 E0.10472
G1 X133.077 Y117.813 E0.01693
G1 X134.888 Y119.623 E0.08077
G1 X134.888 Y119.086 E0.01693
G1 X133.614 Y117.813 E0.05682
G1 X134.151 Y117.813 E0.01693
G1 X134.888 Y118.550 E0.03288
G1 X134.888 Y118.013 E0.01693
G1 X134.627 Y117.753 E0.01161
G1 X134.627 Y117.216 E0.01693
G1 X134.888 Y117.476 E0.01161
G1 X134.888 Y116.940 E0.01693
G1 X134.627 Y116.680 E0.01161
G1 X134.627 Y116.143 E0.01693
G1 X134.888 Y116.403 E0.01161
G1 X134.888 Y115.867 E0.01693
G1 X134.627 Y115.606 E0.01161
G1 X134.627 Y115.070 E0.01693
G1 X134.888 Y115.330 E0.01161
G1 X134.888 Y114.793 E0.01693
G1 X134.627 Y114.533 E0.01161
G1 X134.627 Y113.996 E0.01693
G1 X134.888 Y114.257 E0.01161
G1 X134.888 Y113.720 E0.01693
G1 X134.627 Y113.460 E0.01161
G1 X134.627 Y112.923 E0.01693
G1 X134.888 Y113.183 E0.01161
G1 X134.888 Y112.647 E0.01693
G1 X134.627 Y112.386 E0.01161
G1 X134.627 Y111.850 E0.01693
G1 X134.888 Y112.110 E0.01161
G1 X134.888 Y111.573 E0.01693
G1 X134.627 Y111.313 E0.01161
G1 X134.627 Y110.776 E0.01693
G1 X134.888 Y111.037 E0.01161
G1 X134.888 Y110.500 E0.01693
G1 X134.627 Y110.240 E0.01161
G1 X134.627 Y109.703 E0.01693
G1 X134.888 Y109.963 E0.01161
G1 X134.888 Y109.427 E0.01693
G1 X134.627 Y109.166 E0.01161
G1 X134.627 Y108.630 E0.01693
G1 X134.888 Y108.890 E0.01161
G1 X134.888 Y108.353 E0.01693
G1 X134.627 Y108.093 E0.01161
G1 X134.627 Y107.557 E0.01693
G1 X134.888 Y107.817 E0.01161
G1 X134.888 Y107.280 E0.01693
G1 X134.627 Y107.020 E0.01161
G1 X134.627 Y106.483 E0.01693
G1 X134.888 Y106.744 E0.01161
G1 X134.888 Y106.207 E0.01693
G1 X134.627 Y105.947 E0.01161
G1 X134.627 Y105.410 E0.01693
G1 X134.888 Y105.670 E0.01161
G1 X134.888 Y105.134 E0.01693
G1 X134.627 Y104.873 E0.01161
G1 X134.627 Y104.337 E0.01693
G1 X134.888 Y104.597 E0.01161
G1 X134.888 Y104.060 E0.01693
G1 X134.627 Y103.800 E0.01161
G1 X134.627 Y103.263 E0.01693
G1 X134.888 Y103.524 E0.01161
G1 X134.888 Y102.987 E0.01693
G1 X134.627 Y102.727 E0.01161
G1 X134.627 Y102.190 E0.01693
G1 X134.888 Y102.450 E0.01161
G1 X134.888 Y101.914 E0.01693
G1 X134.627 Y101.653 E0.01161
G1 X134.627 Y101.117 E0.01693
G1 X134.888 Y101.377 E0.01161
G1 X134.888 Y100.840 E0.01693
G1 X134.627 Y100.580 E0.01161
G1 X134.627 Y100.043 E0.01693
G1 X134.888 Y100.304 E0.01161
G1 X134.888 Y99.767 E0.01693
G1 X134.627 Y99.507 E0.01161
G1 X134.627 Y98.970 E0.01693
G1 X134.888 Y99.230 E0.01161
G1 X134.888 Y98.694 E0.01693
G1 X134.627 Y98.434 E0.01161
G1 X134.627 Y97.897 E0.01693
G1 X134.888 Y98.157 E0.01161
G1 X134.888 Y97.621 E0.01693
G1 X134.627 Y97.360 E0.01161
G1 X134.627 Y96.824 E0.01693
G1 X134.888 Y97.084 E0.01161
G1 X134.888 Y96.547 E0.01693
G1 X134.627 Y96.287 E0.01161
G1 X134.627 Y95.750 E0.01693
G1 X134.888 Y96.011 E0.01161
G1 X134.888 Y95.474 E0.01693
G1 X134.627 Y95.214 E0.01161
G1 X134.627 Y94.677 E0.01693
G1 X134.888 Y94.937 E0.01161
G1 X134.888 Y94.401 E0.01693
G1 X134.627 Y94.140 E0.01161
G1 X134.627 Y93.604 E0.01693
G1 X134.888 Y93.864 E0.01161
G1 X134.888 Y93.327 E0.01693
G1 X134.627 Y93.067 E0.01161
G1 X134.627 Y92.530 E0.01693
G1 X135.057 Y92.960 E0.01919
G1 F8640
G1 X134.627 Y92.530 E-0.14040
G1 X134.627 Y93.067 E-0.12391
G1 X134.888 Y93.327 E-0.08499
G1 X134.888 Y93.864 E-0.12391
G1 X134.627 Y93.604 E-0.08499
G1 X134.627 Y94.140 E-0.12391
G1 X134.866 Y94.379 E-0.07788
G1 E-0.04000 F2100.00000
G1 Z0.800 F10800.000
G1 X131.430 Y88.797
G1 Z0.200
G1 E0.80000 F2100.00000
G1 F1200
G1 X134.888 Y92.254 E0.15428
G1 X134.888 Y91.717 E0.01693
G1 X132.130 Y88.960 E0.12304
G1 X132.534 Y88.827 E0.01341
G1 X134.888 Y91.181 E0.10503
G1 X134.888 Y90.644 E0.01693
G1 X132.869 Y88.625 E0.09008
G1 X133.076 Y88.459 E0.00839
G1 X133.150 Y88.370 E0.00365
G1 X134.888 Y90.107 E0.07752
G1 X134.888 Y89.571 E0.01693
G1 X133.374 Y88.057 E0.06756
G1 X133.490 Y87.845 E0.00763
G1 X133.537 Y87.683 E0.00531
G1 X134.888 Y89.034 E0.06027
G1 X134.888 Y88.497 E0.01693
G1 X133.621 Y87.231 E0.05649
G1 X133.631 Y87.127 E0.00330
G1 X133.601 Y86.793 E0.01060
G1 X133.553 Y86.626 E0.00547
G1 X134.888 Y87.961 E0.05956
G1 X134.888 Y87.424 E0.01693
G1 X131.776 Y84.313 E0.13883
G1 X132.313 Y84.313 E0.01693
G1 X134.888 Y86.888 E0.11488
G1 X134.888 Y86.351 E0.01693
G1 X132.850 Y84.313 E0.09094
G1 X133.386 Y84.313 E0.01693
G1 X134.888 Y85.814 E0.06699
G1 X134.888 Y85.278 E0.01693
G1 X133.923 Y84.313 E0.04304
G1 X134.460 Y84.313 E0.01693
G1 X135.057 Y84.911 E0.02667
G1 F8640
G1 X134.460 Y84.313 E-0.19516
G1 X133.923 Y84.313 E-0.12391
G1 X134.888 Y85.278 E-0.31499
G1 X134.888 Y85.814 E-0.12391
G1 X134.881 Y85.808 E-0.00202
G1 E-0.04000 F2100.00000
G1 Z0.800 F10800.000
G1 X132.559 Y85.632
G1 Z0.200
G1 E0.80000 F2100.00000
G1 F1200
G1 X131.240 Y84.313 E0.05885
G1 X130.703 Y84.313 E0.01693
G1 X131.653 Y85.263 E0.04241
G1 X131.361 Y85.296 E0.00929
G1 X131.200 Y85.346 E0.00532
G1 X130.166 Y84.313 E0.04612
G1 X129.630 Y84.313 E0.01693
G1 X130.826 Y85.509 E0.05336
G1 X130.740 Y85.554 E0.00305
G1 X130.515 Y85.735 E0.00911
G1 X129.093 Y84.313 E0.06344
G1 X128.556 Y84.313 E0.01693
G1 X130.256 Y86.013 E0.07586
G1 X130.057 Y86.351 E0.01237
G1 X128.020 Y84.313 E0.09093
G1 X127.483 Y84.313 E0.01693
G1 X129.925 Y86.754 E0.10894
G1 X129.884 Y87.127 E0.01183
G1 X129.896 Y87.263 E0.00428
G1 X126.947 Y84.313 E0.13162
G1 X126.410 Y84.313 E0.01693
G1 X134.170 Y92.073 E0.34628
G1 X133.633 Y92.073 E0.01693
G1 X125.873 Y84.313 E0.34628
G1 X125.337 Y84.313 E0.01693
G1 X133.097 Y92.073 E0.34628
G1 X132.560 Y92.073 E0.01693
G1 X124.800 Y84.313 E0.34628
G1 X124.263 Y84.313 E0.01693
G1 X132.024 Y92.073 E0.34628
G1 X131.487 Y92.073 E0.01693
G1 X123.727 Y84.313 E0.34628
G1 X123.190 Y84.313 E0.01693
